!!!COM: Palestrina, Giovanni Perluigi da
!!!OPR: Missa Je suis desheritee
!!!OTL: Agnus I
**kern	**kern	**kern	**kern
*Ibass	*Itenor	*Icalto	*Icant
!Bassus	!Tenor	!Altus	!Cantus
*clefF4	*clefGv2	*clefG2	*clefG2
*k[b-]	*k[b-]	*k[b-]	*k[b-]
*D:aeo	*D:aeo	*D:aeo	*D:aeo
*M4/2	*M4/2	*M4/2	*M4/2
=1	=1	=1	=1
0r	1.d	1r	0r
.	.	[1d	.
.	2d	.	.
=2	=2	=2	=2
0r	1.f	2d]	1.a
.	.	2d	.
.	.	1f	.
.	4e	.	2a
.	4d	.	.
=3	=3	=3	=3
1r	1e	1.g	1cc
[1D	[1d	.	1dd
.	.	4f	.
.	.	4e	.
=4	=4	=4	=4
2D]	2d]	2.f	1a
2D	4c	.	.
.	4B-	4g	.
1F	1A	4a	2r
.	.	4b-	.
.	.	[2a	[2dd
=5	=5	=5	=5
1G	1B-	2a]	2dd]
.	.	2g	2dd
[1D	2A	2a	2.ff
.	[2d	2a	.
.	.	.	4ee
=6	=6	=6	=6
1D]	2d]	2a	4dd
.	.	.	4cc
.	2d	2.b-	1dd
1r	1f	.	.
.	.	4a	.
.	.	[2a	2cc
=7	=7	=7	=7
0r	1g	2a]	1b-
.	.	2g	.
.	2d	[1a	2a
.	[2f	.	[2dd
=8	=8	=8	=8
1.A	2f]	1a]	2dd]
.	4e	.	4cc
.	4d	.	4b
.	2e	2r	2cc
2A	[2a	[2cc	[2ff
=9	=9	=9	=9
1c	2a]	2cc]	2ff]
.	2g	2cc	2.ee
1d	1f	[1a	.
.	.	.	4dd
.	.	.	[2dd
=10	=10	=10	=10
1A	1e	1a]	2dd]
.	.	.	2cc#
2r	1d	2.f	[1dd
2B-	.	.	.
.	.	4e	.
=11	=11	=11	=11
2B-	2r	1d	1dd]
2B-	2f	.	.
2A	2f	2r	1r
[2G	2e	2b-	.
=12	=12	=12	=12
2G]	2.d	2b-	0r
2F#	.	2a	.
.	4c	.	.
2.G	2B-	[1g	.
.	[2d	.	.
4F	.	.	.
=13	=13	=13	=13
1E	2d]	1g]	1r
.	2c#	.	.
[1D	1d	1f	2r
.	.	.	2ff
=14	=14	=14	=14
1D]	2A	2d	2ff
.	2a	2f	2ff
2r	2g	2g	2ee
2F	2f	2a	[2dd
=15	=15	=15	=15
2G	2.e	2b-	2dd]
2A	.	2a	2cc#
.	4f	.	.
2.B-	4d	1f	2.dd
.	4e	.	.
.	[2f	.	.
4A	.	.	4cc
=16	=16	=16	=16
1G	2f]	1g	1b-
.	2e	.	.
[1F	1f	2c	[1a
.	.	2cc	.
=17	=17	=17	=17
1F]	2r	2cc	1a]
.	2f	2cc	.
1D	2f	2b-	1r
.	2f	[2a	.
=18	=18	=18	=18
2A	2e	2a]	0r
2B-	1d	2g	.
1A	.	2a	.
.	2c#	2e	.
=19	=19	=19	=19
2.D	1d	2.f	2r
.	.	.	2ff
4E	.	4g	.
4F	2A	1a	2ff
4G	.	.	.
4A	2a	.	2ff
4B-	.	.	.
=20	=20	=20	=20
2c	2g	2r	2ee
2d	2f	2a	1dd
1A	1e	2a	.
.	.	2a	2cc#
=21	=21	=21	=21
1D	1d	2b-	2.dd
.	.	2a	.
.	.	.	4cc
1r	1r	2g	2b-
.	.	[2f	2a
=22	=22	=22	=22
1r	1.c	2f]	1g
.	.	2e	.
[1F	.	2.f	[1a
.	2c	.	.
.	.	8e	.
.	.	8d	.
=23	=23	=23	=23
2F]	1f	1c	1a]
2F	.	.	.
1B-	2d	1r	1r
.	2f	.	.
=24	=24	=24	=24
2G	2e	2r	0r
1B-	4d	1f	.
.	4c	.	.
.	4d	.	.
.	4e	.	.
2A	[2f	2f	.
=25	=25	=25	=25
0G	2f]	1b-	0r
.	4e	.	.
.	4d	.	.
.	2e	2g	.
.	2d	[2b-	.
=26	=26	=26	=26
1.F	2f	4b-]	1.cc
.	.	4a	.
.	4F	1a	.
.	4G	.	.
.	4A	.	.
.	4B-	.	.
2E	[2c	2g	2cc
=27	=27	=27	=27
0D	2c]	0f	1ff
.	4B	.	.
.	4A	.	.
.	1B	.	2dd
.	.	.	[2ff
=28	=28	=28	=28
1C	0c	2r	2ff]
.	.	1g	4ee
.	.	.	4dd
1r	.	.	4ee
.	.	.	4dd
.	.	2g	4cc
.	.	.	4b-
=29	=29	=29	=29
1F	0r	1cc	4a
.	.	.	4g
.	.	.	4a
.	.	.	4b-
2F	.	2a	2cc
2B-	.	[2b-	[2dd
=30	=30	=30	=30
2G	1r	2b-]	4dd]
.	.	.	4ee
2F	.	2a	1ff
1c	2r	2.g	.
.	[2c	.	4ee
.	.	4f	4dd
=31	=31	=31	=31
2r	2c]	2g	2ee
1F	2c	2a	2cc
.	1f	1a	2cc
2F	.	.	[2ff
=32	=32	=32	=32
1.B-	1.d	1f	2ff]
.	.	.	2dd
.	.	2f	2ff
2G	[2g	[2b-	[2ee
=33	=33	=33	=33
1B-	4g]	2b-]	4ee]
.	4f	.	4dd
.	4e	2g	1dd
.	4d	.	.
1A	1e	1a	.
.	.	.	2cc#
=34	=34	=34	=34
0D	0d	0f#	0dd
==	==	==	==
*-	*-	*-	*-
!!!CDT: 1525/^1526/-1594/2/2
!!!OCY: Italia
!!!AGN: Mass (Parody)
!!!AST: renaissance, vocal
!!!ASW: Chanson 1533 (Lupi or Cadéac)
!!!PWK: Masses, Book 6
!!!RNB: Cadence finals: F
!!!YOR: Le Opere Complete, v. 21, p. 52
!!!YOO: Rome, Italy: Fratelli Scalera
!!!END: 1992//
!!!EED: John Miller
!!!YEC: Copyright 2000, John Miller
!!!YEN: United States of America
!!!YEM: Rights to all derivative electronic formats reserved.
!!!YEM: Refer to licensing agreement for further details.
!!!YEM: This file must be accompanied by the licensing agreement.
!!!YEM: A copy of the licensing agreement may be found at http://www.music-cog.ohio-state.edu/HumdrumDatabases/Palestrina/license.txt
!!!EMD: converted to Humdrum by Bret Aarden
